src/app/assets/svg/tractor.svg

<?xml version="1.0" encoding="UTF-8"?>
<svg width="185px" height="186px" viewBox="0 0 185 186" version="1.1" xmlns="http://www.w3.org/2000/svg" xmlns:xlink="http://www.w3.org/1999/xlink">
    <title>Group 7</title>
    <defs>
        <path d="M0,92.5 C0,143.586 41.414,185.001 92.501,185.001 L92.501,185.001 C143.586,185.001 185,143.586 185,92.5 L185,92.5 C185,41.415 143.586,0 92.501,0 L92.501,0 C41.414,0 0,41.415 0,92.5 L0,92.5 Z" id="path-1"></path>
    </defs>
    <g id="Page-1" stroke="none" stroke-width="1" fill="none" fill-rule="evenodd">
        <g id="Blue-Sky-Product-Page" transform="translate(-682.000000, -4037.000000)">
            <g id="Group-7" transform="translate(682.000000, 4037.000000)">
                <path d="M92.5,185 C143.586,185 185,143.586 185,92.5 C185,41.414 143.586,0 92.5,0 C41.414,0 0,41.414 0,92.5 C0,143.586 41.414,185 92.5,185" id="Fill-1" fill="#49C0B7"></path>
                <g id="Group-5">
                    <mask id="mask-2" fill="white">
                        <use xlink:href="#path-1"></use>
                    </mask>
                    <g id="Clip-4"></g>
                    <polygon id="Fill-3" fill="#4686C6" mask="url(#mask-2)" points="-5 190 190 190 190 -5 -5 -5"></polygon>
                </g>
                <path d="M107.771,126.684 C107.771,127.72 106.919,128.573 105.887,128.573 C104.838,128.573 104,127.72 104,126.684 L104,87.887 C104,86.843 104.838,86 105.887,86 C106.919,86 107.771,86.843 107.771,87.887 L107.771,126.684 Z" id="Fill-6" fill="#004B75"></path>
                <path d="M121.306329,61.795 C118.693329,38.574 106.604329,13.526 106.360329,13.024 L106.360329,13 L106.353329,13.019 L106.342329,13 L106.342329,13.024 C106.109329,13.526 94.0123285,38.574 91.3963285,61.795 C88.1203285,90.879 106.226329,90.167 106.353329,90.152 C106.477329,90.167 124.582329,90.879 121.306329,61.795" id="Fill-8" fill="#FBB21F"></path>
                <path d="M121.041,61.795 C118.428,38.574 106.339,13.526 106.095,13.024 L106.095,13 L106.088,13.019 L106.077,13 L106.077,13.024 C106.066,13.041 106.04,13.108 106,13.19 L106,90.152 L106.088,90.152 C106.212,90.167 124.317,90.879 121.041,61.795" id="Fill-10" fill="#DCE3E9"></path>
                <path d="M85.455,127.383 C85.455,128.34 84.685,129.113 83.732,129.113 C82.768,129.113 82,128.34 82,127.383 L82,91.733 C82,90.77 82.768,90 83.732,90 C84.685,90 85.455,90.77 85.455,91.733 L85.455,127.383 Z" id="Fill-12" fill="#004B75"></path>
                <path d="M96.8388051,67.823 C94.4318051,46.5 83.3328051,23.483 83.1078051,23.021 L83.1078051,23 L83.1018051,23.008 L83.0948051,23 L83.0948051,23.021 C82.8688051,23.483 71.7658051,46.5 69.3638051,67.823 C66.3558051,94.552 82.9858051,93.893 83.1018051,93.88 C83.2188051,93.893 99.8448051,94.552 96.8388051,67.823" id="Fill-14" fill="#FBB21F"></path>
                <path d="M96.813,67.823 C94.406,46.5 83.307,23.483 83.082,23.021 L83.082,23 L83.076,23.008 L83.069,23 L83.069,23.021 C83.059,23.034 83.033,23.098 83,23.175 L83,93.88 L83.069,93.88 C83.193,93.893 99.819,94.552 96.813,67.823" id="Fill-16" fill="#DCE3E9"></path>
                <path d="M75.203,80.968 C75.203,81.514 74.766,81.952 74.224,81.952 L71.972,81.952 C71.431,81.952 71,81.514 71,80.968 C71,80.437 71.431,80 71.972,80 L74.224,80 C74.766,80 75.203,80.437 75.203,80.968" id="Fill-18" fill="#7AAB4C"></path>
                <path d="M145.51,131.062 C145.51,131.751 144.944,132.319 144.256,132.319 C143.56,132.319 143,131.751 143,131.062 L143,105.254 C143,104.56 143.56,104 144.256,104 C144.944,104 145.51,104.56 145.51,105.254 L145.51,131.062 Z" id="Fill-20" fill="#004B75"></path>
                <path d="M154.158242,87.459 C152.422242,72.013 144.379242,55.35 144.216242,55.015 L144.216242,55 L144.213242,55.013 L144.206242,55 L144.206242,55.015 C144.050242,55.35 136.003242,72.013 134.264242,87.459 C132.082242,106.806 144.128242,106.332 144.213242,106.322 C144.295242,106.332 156.338242,106.806 154.158242,87.459" id="Fill-22" fill="#FBB21F"></path>
                <path d="M154.004,87.459 C152.268,72.013 144.225,55.35 144.062,55.015 L144.062,55 L144.059,55.013 L144.052,55 L144.052,55.015 C144.044,55.027 144.028,55.072 144,55.126 L144,106.322 L144.059,106.322 C144.141,106.332 156.184,106.806 154.004,87.459" id="Fill-24" fill="#DCE3E9"></path>
                <path d="M112.957435,107.224134 C112.331435,108.712134 110.616435,109.412134 109.128435,108.788134 L108.791435,108.644134 C107.305435,108.021134 106.603435,106.308134 107.228435,104.818134 L111.438435,94.7921338 C112.061435,93.3041338 113.773435,92.6031338 115.264435,93.2291338 L115.602435,93.3701338 C117.088435,93.9941338 117.793435,95.7081338 117.164435,97.1981338 L112.957435,107.224134 Z" id="Fill-26" fill="#004B75"></path>
                <path d="M56.664,104.816 L56.666,96.828 C56.666,95.379 55.853,94.133 54.666,93.481 L54.668,87.831 L59.043,87.832 L60.241,84.002 L52.753,84 C52.357,84 51.988,84.12 51.682,84.326 C51.173,84.67 50.836,85.253 50.836,85.916 L50.834,93.571 C49.742,94.245 49.004,95.444 49.003,96.827 L49,104.814 L56.664,104.816 Z" id="Fill-28" fill="#004B75"></path>
                <polygon id="Fill-30" fill="#DCE3E9" points="49.001 103 49 104.616 56.664 104.618 56.665 103.002"></polygon>
                <path d="M88.119,104.448 L99.926,76.765 L121.108,76.77 L125.032,104.456 L88.119,104.448 Z M129.459,103.316 L124.135,73 L97.816,73.325 L83.314,104.14 L56.83,104.135 L56.83,104.124 L49.167,104.122 L49.167,104.132 L46.333,104.131 C46.333,104.131 44.335,104.795 44.167,109.462 C44.001,114.128 44,122.122 44,122.122 L44.082,125.144 C46.9,123.191 50.312,122.044 54,122.045 C61.822,122.046 68.441,127.195 70.649,134.287 L91.114,134.293 C91.059,133.636 91.025,132.974 91.025,132.306 C91.027,119.046 101.779,108.299 115.04,108.302 C124.096,108.305 131.975,113.322 136.064,120.728 C135.745,115.537 134.088,109.404 129.459,103.316 L129.459,103.316 Z" id="Fill-32" fill="#68CBE4"></path>
                <path d="M70,133 C70.155,133.395 70.3,133.791 70.425,134.194 L90.891,134.2 C90.858,133.805 90.836,133.405 90.821,133.005 L70,133 Z" id="Fill-34" fill="#DCE3E9"></path>
                <path d="M69.336,133.672245 L62.516,136.837245 L47.044,130.984245 L44,124.526245 C44,124.526245 48.996,120.388245 58.253,122.704245 C67.512,125.021245 68.607,130.990245 69.336,133.672245" id="Fill-36" fill="#FFFFFF"></path>
                <path d="M91.5968401,133.046414 L95.4938401,133.047414 L122.66184,133.053414 L135.15384,120.567414 C135.15384,120.567414 130.82784,110.150414 122.29984,108.565414 C113.77484,106.979414 100.00884,108.317414 94.5238401,117.939414 C89.0358401,127.564414 91.5968401,133.046414 91.5968401,133.046414" id="Fill-38" fill="#FFFFFF"></path>
                <path d="M65.138,111.725005 L47.361,111.721005 C46.608,111.720005 46,111.112005 46,110.361005 C46,109.609005 46.608,108.998005 47.361,109 L65.138,109.003005 C65.89,109.003005 66.497,109.615005 66.497,110.366005 C66.497,111.119005 65.889,111.725005 65.138,111.725005" id="Fill-40" fill="#DCE3E9"></path>
                <path d="M76.4257297,116.810962 C76.0037297,117.048962 75.5307297,117.002962 75.3627297,116.710962 L71.0577297,109.110962 C70.8917297,108.818962 71.0957297,108.389962 71.5157297,108.153962 C71.9337297,107.914962 72.4057297,107.958962 72.5717297,108.252962 L76.8807297,115.853962 C77.0447297,116.146962 76.8417297,116.575962 76.4257297,116.810962" id="Fill-42" fill="#DCE3E9"></path>
                <path d="M81.4226284,116.814376 C81.0046284,117.047376 80.5326284,117.004376 80.3636284,116.710376 L76.0576284,109.109376 C75.8916284,108.817376 76.0966284,108.388376 76.5136284,108.151376 C76.9316284,107.914376 77.4066284,107.961376 77.5706284,108.252376 L81.8796284,115.852376 C82.0466284,116.146376 81.8406284,116.575376 81.4226284,116.814376" id="Fill-44" fill="#DCE3E9"></path>
                <path d="M86.4214441,116.813692 C86.0064441,117.047692 85.5314441,117.003692 85.3654441,116.709692 L81.0574441,109.109692 C80.8924441,108.816692 81.0944441,108.387692 81.5154441,108.151692 C81.9334441,107.914692 82.4064441,107.960692 82.5724441,108.252692 L86.8804441,115.851692 C87.0454441,116.145692 86.8414441,116.574692 86.4214441,116.813692" id="Fill-46" fill="#DCE3E9"></path>
                <path d="M69.115,134.463836 C67.445,127.668836 62.604,125.032836 60.537,123.910836 L60.396,123.833836 C51.068,119.360836 43.723,125.394836 43.416,125.652836 L42,123.980836 C42.349,123.681836 50.703,116.760836 61.395,121.881836 L61.588,121.984836 C63.706,123.136836 69.343,126.205836 71.245,133.942836 L69.115,134.463836 Z" id="Fill-48" fill="#ECECEC"></path>
                <path d="M89.2820707,135.393068 C89.2460707,135.222068 85.8840707,118.228068 103.360071,108.681068 L103.427071,108.649068 C111.738071,104.646068 120.743071,105.195068 128.771071,110.192068 L129.122071,110.438068 C131.688071,112.247068 133.541071,113.552068 137.665071,120.612068 L135.141071,122.087068 C131.337071,115.578068 129.785071,114.482068 127.437071,112.826068 L127.190071,112.653068 C119.960071,108.165068 112.193071,107.686068 104.726071,111.267068 C89.2430707,119.746068 92.0170707,134.180068 92.1460707,134.790068 L89.2820707,135.393068 Z" id="Fill-50" fill="#ECECEC"></path>
                <path d="M66.8907443,146.878 C66.8907443,146.878 68.7697443,144.583 68.5177443,142.208 L66.0127443,140.067 C66.0487443,139.46 66.0387443,138.859 65.9807443,138.264 L68.5437443,136.033 C68.5437443,136.033 68.3257443,133.071 66.5017443,131.53 L63.1957443,131.707 C62.8457443,131.297 62.4647443,130.909 62.0567443,130.552 L62.2997443,127.025 C62.2997443,127.025 60.0527443,125.089 57.6697443,125.288 L55.5477443,127.655 C54.7317443,127.563 53.9167443,127.557 53.1147443,127.635 L50.7127443,125 C50.7127443,125 47.7617443,125.293 46.2607443,127.15 L46.5157443,130.453 C46.0227443,130.879 45.5597443,131.35 45.1367443,131.858 L41.6517443,131.702 C41.6517443,131.702 39.7687443,133.996 40.0237443,136.373 L42.4677443,138.464 C42.4107443,139.164 42.4207443,139.869 42.4907443,140.558 L40.0487443,142.68 C40.0487443,142.68 40.2707443,145.638 42.0937443,147.184 L45.2297443,147.013 C45.6947443,147.557 46.2067443,148.065 46.7707443,148.524 L46.5317443,151.897 C46.5317443,151.897 48.7817443,153.832 51.1657443,153.635 L53.3937443,151.154 C54.1237443,151.207 54.8537443,151.19 55.5727443,151.104 L57.8297443,153.578 C57.8297443,153.578 60.7827443,153.289 62.2817443,151.427 L62.0337443,148.239 C62.5537443,147.782 63.0367443,147.273 63.4737443,146.719 L66.8907443,146.878 Z" id="Fill-52" fill="#004B75"></path>
                <path d="M51.3477032,145.669969 C47.7277032,144.143969 46.0327032,139.966969 47.5637032,136.348969 C49.0947032,132.728969 53.2687032,131.032969 56.8897032,132.562969 C60.5047032,134.090969 62.2017032,138.269969 60.6707032,141.889969 C59.1407032,145.507969 54.9657032,147.198969 51.3477032,145.669969" id="Fill-54" fill="#ECECEC"></path>
                <path d="M55.2987671,140.387329 C54.9297671,141.257329 53.9237671,141.668329 53.0497671,141.299329 C52.1757671,140.931329 51.7677671,139.923329 52.1347671,139.050329 C52.5057671,138.175329 53.5127671,137.767329 54.3867671,138.135329 C55.2587671,138.504329 55.6677671,139.511329 55.2987671,140.387329" id="Fill-56" fill="#939597"></path>
                <path d="M133.509,143.74 C133.509,143.74 136.35,140.405 136.039,136.89 L132.402,133.66 C132.47,132.769 132.471,131.878 132.404,130.998 L136.252,127.772 C136.252,127.772 136.008,123.401 133.357,121.068 L128.471,121.244 C127.964,120.629 127.412,120.048 126.822,119.502 L127.279,114.306 C127.279,114.306 124.014,111.386 120.492,111.611 L117.29,115.053 C116.088,114.893 114.887,114.86 113.699,114.952 L110.229,111 C110.229,111 105.862,111.347 103.593,114.054 L103.884,118.931 C103.141,119.549 102.447,120.232 101.807,120.976 L96.666,120.643 C96.666,120.643 93.828,123.976 94.138,127.496 L97.685,130.645 C97.585,131.681 97.574,132.719 97.658,133.742 L94,136.806 C94,136.806 94.242,141.18 96.894,143.511 L101.532,143.344 C102.198,144.163 102.942,144.924 103.763,145.618 L103.32,150.592 C103.32,150.592 106.585,153.513 110.109,153.283 L113.463,149.681 C114.541,149.779 115.622,149.774 116.687,149.669 L119.949,153.384 C119.949,153.384 124.315,153.037 126.582,150.33 L126.302,145.619 C127.081,144.958 127.808,144.219 128.47,143.414 L133.509,143.74 Z" id="Fill-58" fill="#004B75"></path>
                <path d="M110.240154,142.108984 C104.938154,139.750984 102.551154,133.542984 104.909154,128.240984 C107.266154,122.938984 113.476154,120.550984 118.778154,122.908984 C124.077154,125.265984 126.467154,131.476984 124.108154,136.779984 C121.751154,142.080984 115.540154,144.462984 110.240154,142.108984" id="Fill-60" fill="#ECECEC"></path>
                <path d="M116.854812,133.566115 C116.284812,134.847115 114.785812,135.422115 113.504812,134.853115 C112.226812,134.287115 111.650812,132.785115 112.218812,131.505115 C112.788812,130.225115 114.288812,129.651115 115.566812,130.219115 C116.847812,130.788115 117.422812,132.287115 116.854812,133.566115" id="Fill-62" fill="#939597"></path>
                <path d="M91.7580003,60.9300011 C91.7570003,64.2030011 89.1020003,66.8570011 85.8290003,66.8570011 L77.9240003,66.8540011 C74.6510003,66.8530011 71.9990003,64.1990011 72,60.9250011 C72.0010003,57.6520011 74.6530003,54.9980011 77.9270003,55 L85.8330003,55.0020011 C89.1050003,55.0020011 91.7580003,57.6580011 91.7580003,60.9300011" id="Fill-64" fill="#ECECEC"></path>
                <path d="M76.0670007,78.715 C76.0670007,81.318 73.9570004,83.425 71.3570004,83.425 L67.7080004,83.424 C65.1080004,83.424 62.9990004,81.315 63,78.711 C63,76.11 65.1100004,74 67.7110004,74 L71.3590004,74.002 C73.9600004,74.003 76.0680004,76.112 76.0670007,78.715" id="Fill-66" fill="#ECECEC"></path>
            </g>
        </g>
    </g>
</svg>

<svg xmlns="http://www.w3.org/2000/svg" xmlns:xlink="http://www.w3.org/1999/xlink" width="185" height="186"><defs/><defs><path id="a" d="M0 92.5c0 51.086 41.414 92.501 92.501 92.501 51.085 0 92.499-41.415 92.499-92.501C185 41.415 143.586 0 92.501 0 41.414 0 0 41.415 0 92.5z"/></defs><g fill="none" fill-rule="evenodd"><path fill="#49C0B7" d="M92.5 185c51.086 0 92.5-41.414 92.5-92.5S143.586 0 92.5 0 0 41.414 0 92.5 41.414 185 92.5 185"/><g><mask id="b" fill="#fff"><use xlink:href="#a"/></mask><path fill="#4686C6" d="M-5 190h195V-5H-5z" mask="url(#b)"/></g><path fill="#004B75" d="M107.771 126.684a1.897 1.897 0 01-1.884 1.889 1.888 1.888 0 01-1.887-1.889V87.887c0-1.044.838-1.887 1.887-1.887a1.89 1.89 0 011.884 1.887v38.797z"/><path fill="#FBB21F" d="M121.306 61.795c-2.613-23.221-14.702-48.269-14.946-48.771V13l-.007.019-.01-.019v.024c-.234.502-12.33 25.55-14.947 48.771-3.276 29.084 14.83 28.372 14.957 28.357.124.015 18.23.727 14.953-28.357"/><path fill="#DCE3E9" d="M121.041 61.795c-2.613-23.221-14.702-48.269-14.946-48.771V13l-.007.019-.011-.019v.024c-.011.017-.037.084-.077.166v76.962h.088c.124.015 18.229.727 14.953-28.357"/><path fill="#004B75" d="M85.455 127.383c0 .957-.77 1.73-1.723 1.73a1.725 1.725 0 01-1.732-1.73v-35.65c0-.963.768-1.733 1.732-1.733.953 0 1.723.77 1.723 1.733v35.65z"/><path fill="#FBB21F" d="M96.839 67.823C94.432 46.5 83.333 23.483 83.108 23.021V23l-.006.008-.007-.008v.021c-.226.462-11.33 23.479-13.731 44.802-3.008 26.729 13.622 26.07 13.738 26.057.117.013 16.743.672 13.737-26.057"/><path fill="#DCE3E9" d="M96.813 67.823C94.406 46.5 83.307 23.483 83.082 23.021V23l-.006.008-.007-.008v.021c-.01.013-.036.077-.069.154V93.88h.069c.124.013 16.75.672 13.744-26.057"/><path fill="#7AAB4C" d="M75.203 80.968a.979.979 0 01-.979.984h-2.252a.974.974 0 01-.972-.984.97.97 0 01.972-.968h2.252c.542 0 .979.437.979.968"/><path fill="#004B75" d="M145.51 131.062c0 .689-.566 1.257-1.254 1.257a1.258 1.258 0 01-1.256-1.257v-25.808a1.256 1.256 0 012.51 0v25.808z"/><path fill="#FBB21F" d="M154.158 87.459c-1.736-15.446-9.779-32.109-9.942-32.444V55l-.003.013-.007-.013v.015c-.156.335-8.203 16.998-9.942 32.444-2.182 19.347 9.864 18.873 9.95 18.863.081.01 12.124.484 9.944-18.863"/><path fill="#DCE3E9" d="M154.004 87.459c-1.736-15.446-9.779-32.109-9.942-32.444V55l-.003.013-.007-.013v.015c-.008.012-.024.057-.052.111v51.196h.059c.082.01 12.125.484 9.945-18.863"/><path fill="#004B75" d="M112.957 107.224a2.928 2.928 0 01-3.829 1.564l-.337-.144a2.923 2.923 0 01-1.563-3.826l4.21-10.026a2.92 2.92 0 013.826-1.563l.338.141a2.922 2.922 0 011.562 3.828l-4.207 10.026zM56.664 104.816l.002-7.988c0-1.449-.813-2.695-2-3.347l.002-5.65 4.375.001 1.198-3.83L52.753 84a1.912 1.912 0 00-1.917 1.916l-.002 7.655a3.825 3.825 0 00-1.831 3.256L49 104.814l7.664.002z"/><path fill="#DCE3E9" d="M49.001 103L49 104.616l7.664.002.001-1.616z"/><path fill="#68CBE4" d="M88.119 104.448l11.807-27.683 21.182.005 3.924 27.686-36.913-.008zm41.34-1.132L124.135 73l-26.319.325-14.502 30.815-26.484-.005v-.011l-7.663-.002v.01l-2.834-.001s-1.998.664-2.166 5.331c-.166 4.666-.167 12.66-.167 12.66l.082 3.022A17.333 17.333 0 0154 122.045c7.822.001 14.441 5.15 16.649 12.242l20.465.006a23.797 23.797 0 01-.089-1.987c.002-13.26 10.754-24.007 24.015-24.004 9.056.003 16.935 5.02 21.024 12.426-.319-5.191-1.976-11.324-6.605-17.412z"/><path fill="#DCE3E9" d="M70 133c.155.395.3.791.425 1.194l20.466.006a26.159 26.159 0 01-.07-1.195L70 133z"/><path fill="#FFF" d="M69.336 133.672l-6.82 3.165-15.472-5.853L44 124.526s4.996-4.138 14.253-1.822c9.259 2.317 10.354 8.286 11.083 10.968M91.597 133.046l3.897.001 27.168.006 12.492-12.486s-4.326-10.417-12.854-12.002c-8.525-1.586-22.291-.248-27.776 9.374-5.488 9.625-2.927 15.107-2.927 15.107"/><path fill="#DCE3E9" d="M65.138 111.725l-17.777-.004a1.36 1.36 0 110-2.721l17.777.003a1.361 1.361 0 010 2.722M76.426 116.811c-.422.238-.895.192-1.063-.1l-4.305-7.6c-.166-.292.038-.721.458-.957.418-.239.89-.195 1.056.099l4.309 7.601c.164.293-.04.722-.455.957M81.423 116.814c-.418.233-.89.19-1.06-.104l-4.305-7.6c-.166-.293.039-.722.456-.959.418-.237.893-.19 1.057.101l4.309 7.6c.167.294-.04.723-.457.962M86.421 116.814c-.415.234-.89.19-1.056-.104l-4.308-7.6c-.165-.293.037-.722.458-.958.418-.237.891-.191 1.057.1l4.308 7.6c.165.294-.039.723-.459.962"/><path fill="#ECECEC" d="M69.115 134.464c-1.67-6.795-6.511-9.431-8.578-10.553l-.141-.077c-9.328-4.473-16.673 1.56-16.98 1.819L42 123.98c.349-.3 8.703-7.22 19.395-2.1l.193.104c2.118 1.152 7.755 4.22 9.657 11.958l-2.13.52zM89.282 135.393c-.036-.17-3.398-17.165 14.078-26.712l.067-.032c8.311-4.003 17.316-3.454 25.344 1.543l.351.246c2.566 1.81 4.42 3.114 8.543 10.174l-2.524 1.475c-3.804-6.509-5.356-7.605-7.704-9.26l-.247-.174c-7.23-4.488-14.997-4.967-22.464-1.386-15.483 8.48-12.709 22.913-12.58 23.523l-2.864.603z"/><path fill="#004B75" d="M66.89 146.878s1.88-2.295 1.628-4.67l-2.505-2.141c.036-.607.026-1.208-.032-1.803l2.563-2.231s-.218-2.962-2.042-4.503l-3.306.177c-.35-.41-.731-.798-1.14-1.155l.244-3.527s-2.247-1.936-4.63-1.737l-2.122 2.367a11.647 11.647 0 00-2.433-.02L50.713 125s-2.951.293-4.452 2.15l.255 3.303a12.05 12.05 0 00-1.38 1.405l-3.484-.156s-1.883 2.294-1.628 4.671l2.444 2.091c-.057.7-.047 1.405.023 2.094l-2.442 2.122s.222 2.958 2.045 4.504l3.136-.171c.465.544.977 1.052 1.54 1.511l-.238 3.373s2.25 1.935 4.634 1.738l2.228-2.481a11.4 11.4 0 002.179-.05l2.257 2.474s2.953-.289 4.452-2.151l-.248-3.188c.52-.457 1.003-.966 1.44-1.52l3.417.159z"/><path fill="#ECECEC" d="M51.348 145.67a7.11 7.11 0 01-3.784-9.321 7.118 7.118 0 019.326-3.786 7.115 7.115 0 01-5.542 13.107"/><path fill="#939597" d="M55.299 140.387a1.718 1.718 0 01-3.164-1.337 1.72 1.72 0 012.252-.915 1.72 1.72 0 01.912 2.252"/><path fill="#004B75" d="M133.509 143.74s2.841-3.335 2.53-6.85l-3.637-3.23c.068-.891.069-1.782.002-2.662l3.848-3.226s-.244-4.371-2.895-6.704l-4.886.176a17.826 17.826 0 00-1.649-1.742l.457-5.196s-3.265-2.92-6.787-2.695l-3.202 3.442a17.151 17.151 0 00-3.591-.101l-3.47-3.952s-4.367.347-6.636 3.054l.291 4.877a17.506 17.506 0 00-2.077 2.045l-5.141-.333s-2.838 3.333-2.528 6.853l3.547 3.149a17.423 17.423 0 00-.027 3.097L94 136.806s.242 4.374 2.894 6.705l4.638-.167c.666.819 1.41 1.58 2.231 2.274l-.443 4.974s3.265 2.921 6.789 2.691l3.354-3.602c1.078.098 2.159.093 3.224-.012l3.262 3.715s4.366-.347 6.633-3.054l-.28-4.711a17.32 17.32 0 002.168-2.205l5.039.326z"/><path fill="#ECECEC" d="M110.24 142.109c-5.302-2.358-7.689-8.566-5.33-13.868 2.356-5.302 8.566-7.69 13.868-5.332 5.3 2.357 7.69 8.568 5.33 13.871-2.357 5.301-8.568 7.683-13.868 5.329"/><path fill="#939597" d="M116.855 133.566a2.538 2.538 0 01-4.636-2.06 2.538 2.538 0 014.636 2.06"/><path fill="#ECECEC" d="M91.758 60.93a5.93 5.93 0 01-5.929 5.927l-7.905-.003A5.926 5.926 0 0172 60.925 5.925 5.925 0 0177.927 55l7.906.002a5.928 5.928 0 015.925 5.928M76.067 78.715a4.71 4.71 0 01-4.71 4.71l-3.649-.001A4.712 4.712 0 0167.711 74l3.648.002a4.71 4.71 0 014.708 4.713"/></g></svg>
